X:15
T:Quick March,2voices. JGi.015
S:Joshua Gibbons MS,1823,Tealby,Lincs.
M:6/8
L:1/8
Q:3/8=110
R:march
O:Tealby,Lincolnshire
Z:VMP/R.Greig, 2009
K:C
[V:1]|:g/f/|e2e dcd|e2c c2e|gag egc’|d2dd2g/f/|
[V:2]|:e/d/|c2c GEG|c2c cde|efe dcB|G2GG2e/d/|
[V:1]e2e dcd|e2c c2a|gfe fdB|c2cc2:|
[V:2]c2c GEG|c2cc2 f|edc cGE|E2EE2:|
[V:1]|:e/f/|g2g geg|a2a abc’|gag gfe|edd d2e/f/|
[V:2]|:c/d/|e2e ece|f2f fga|efe edc|cBB B2c/d/|
[V:1]gag geg|a2a abc’|gfe dcB|c2cc2:|
[V:2]efe ede|f2f fga|edc cGF|E2EE2:|

